!!!OTL: Der J&auml;ger und das M&auml;gdelein (2a), S. 30
!!!id: T0101
**kern
*clefG2
*k[]
*G:
{8g
8cc
=1
4.dd
8ee
4dd
8cc
8a
=2
4.b
8cc
4b}
=3
{4dd
=4
4ee
4dd
4cc
8a
8cc
=5
2b}
4r
=6
{8b
8cc
=7
4dd
4dd
4dd
4gg
=8
4.ee
8dd
4ee}
=9
{8cc
8dd
=10
2dd
4cc
8a
8cc
=11
2b}
4r
=12
{8b
8cc
=13
4dd
4dd
4dd
4gg
=14
4.ee
8dd
4ee}
=15
{8cc
8dd
=16
2dd
4cc
8a
8cc
=17
2b}
4r
==
*-
!!!minrhy: 8
!!!meters: 4/4 ]  ZZ[6
!!!cut: Der J&auml;ger und das M&auml;gdelein (2a), S. 30
!!!reg: Luxemburg
!!!trd: Singendes Volk, Esch-Alzette 1937 posth.
!!!rhy1: XX  X_.XX_XX  X_.XX_
!!!rhy2: X_  X_X_X_XX  X__0_
!!!key: T0101  08  G 4/4 ]  ZZ[6
!!!mod: SECHSTONSKALA DUR ?]  AMBITUS[8
!!!kad: 336363
!!!akz: 5533_643_5566_543_5566_543_
!!!fot: 'a__b__c__d__c__d__
!!!for: 'a__b__c__d__c__d__
!!!fok: '^a_\__^a_\__^a_\__
!! PHRAS[AUFTAKTIG]
!!!fkt: "erz&auml;hlende Lieder"
!!!bem1: STRASSEN, gesungen von Fau Witry am 3.1.1933;
!!!bem2: die gleiche Melodie (2b) aus HEFFINGEN, gesungen von
!!!bem3: Frau Ewen am 10.3.1933
!! THILL, Mathias:
!! PR[47] 2K[7] 2G[7] 3K[9] 3G[0] 4A[0] 4Ü[0] 5A[2] 6K[0] 6G[2]
!! 7K[0] 7G[0] 8A[0] MEHR[0] SI[27] ABS[45] SR[13] SP[13]
!! ST[16] 2k[4] 2g[9] 3k[7] 3g[0] 4d[2] 4ü[2] 5d[2] 6k[0] 6g[0]
!! 7k[0] 7g[0] 8d[0] mehr[0] si[27] dm[0] sr[13] sp[13]
!! 1F[64] 2F[36] 3F[0] 4F[0] LF[0] 2P[0] 3P[0] 4P[0] TRI[0] DF[2] AB[47]
!! TF[0] U3K[0] U3[0] U4[0] U4Ü[0] U5[20] U6K[0] U6[13] U7K[0] U7[7]
!! N1[20] N2K[0] N2[17] N3K[0] N3[17] N4[4] N4Ü[0] N5[2] N6K[0] N6[0]
!!!n7k: 0] N7[0] O1[0] O2K[0] O2[0] O3K[0] O3[0] HÖ[0
!!!RNB: symbol: &auml;      = a umlaut  (UTF-8: Å„)
